assets/icons/ICON_CLAIMS.svg

<svg width="18" height="18" viewBox="0 0 250 250" fill="none" xmlns="http://www.w3.org/2000/svg">
<g clip-path="url(#clip0)">
<path d="M17.2961 14.4844C17.6843 14.4844 17.9992 14.1697 17.9992 13.7813V13.0473C17.9992 11.3779 16.6409 10.0199 14.9715 10.0199H14.5385C14.6165 9.79975 14.6595 9.56327 14.6595 9.31677V6.75051C15.0479 6.75051 15.3626 6.43575 15.3626 6.04739V3.5866C15.3626 3.19824 15.0479 2.88348 14.6595 2.88348H13.9138C14.1477 2.28844 14.1102 1.59465 13.7515 1.00867C13.4573 0.52816 12.9936 0.191018 12.4459 0.0591832C11.8981 -0.0723775 11.3318 0.0170234 10.8512 0.311181C10.5998 0.465126 10.195 0.811056 9.58343 2.03342C9.58219 2.03589 9.58096 2.03836 9.57972 2.04083C9.57848 2.03836 9.57725 2.03589 9.57601 2.03342C8.96435 0.811056 8.55937 0.465126 8.30806 0.311181C7.82755 0.0170234 7.2612 -0.0723775 6.7134 0.0593205C6.1656 0.191018 5.70198 0.528297 5.40782 1.00867C5.04898 1.59479 5.01163 2.28844 5.24536 2.88348H4.4998C4.11144 2.88348 3.79668 3.19824 3.79668 3.5866V6.04739C3.79668 6.43575 4.11144 6.75051 4.4998 6.75051V9.31677C4.4998 9.44641 4.51216 9.57316 4.53468 9.69648L3.57682 8.82129C3.17596 8.43265 2.64752 8.22171 2.08941 8.22707C1.52609 8.23228 0.998476 8.45682 0.603794 8.85891C0.209249 9.26101 -0.00525791 9.79275 9.79225e-05 10.3562C0.00545373 10.9195 0.229711 11.4471 0.631946 11.8417C0.636753 11.8465 0.641696 11.8512 0.64664 11.8558L4.22748 15.1711C5.16063 16.0732 6.24374 16.7774 7.44687 17.2645C8.65262 17.7526 9.92345 18 11.2241 18H17.2961C17.6843 18 17.9992 17.6853 17.9992 17.2969C17.9992 16.9086 17.6843 16.5938 17.2961 16.5938H11.2241C8.96339 16.5938 6.82395 15.7278 5.19977 14.1553C5.19606 14.1517 5.19221 14.1481 5.18837 14.1445L1.61082 10.832C1.4805 10.7012 1.40799 10.5279 1.4062 10.3429C1.40442 10.1552 1.47597 9.97787 1.60753 9.84383C1.73909 9.7098 1.91487 9.63496 2.10273 9.63317H2.10946C2.29472 9.63317 2.46926 9.70445 2.60179 9.8345C2.60769 9.84026 2.61373 9.84603 2.61991 9.85166L6.67824 13.5599C7.06386 13.9769 7.61496 14.2383 8.22621 14.2383H11.7417C12.1299 14.2383 12.4447 13.9236 12.4447 13.5354C12.4447 13.147 12.1299 12.8322 11.7417 12.8322H8.22621C8.08105 12.8322 7.94606 12.788 7.83386 12.7123C7.82974 12.7082 7.8259 12.7038 7.82164 12.6999L7.67882 12.5695C7.58159 12.4488 7.52309 12.2957 7.52309 12.1291C7.52309 11.7414 7.83853 11.426 8.22621 11.426H14.9715C15.8655 11.426 16.5929 12.1533 16.5929 13.0473V13.7813C16.5929 14.1697 16.9077 14.4844 17.2961 14.4844ZM13.2533 9.31677C13.2533 9.70445 12.9378 10.0198 12.5501 10.0198H10.2651V6.75051H13.2533V9.31677ZM13.9564 5.34427H10.2651V4.28959H13.9564V5.34427ZM10.8383 2.66774C11.3293 1.68515 11.5759 1.51665 11.5854 1.51047C11.7457 1.41242 11.9344 1.38262 12.117 1.42643C12.2995 1.47037 12.4541 1.5827 12.5522 1.74297C12.6502 1.90309 12.68 2.09192 12.6362 2.27443C12.5923 2.45707 12.4798 2.61171 12.3205 2.70921C12.3098 2.71525 12.0468 2.85766 10.9474 2.8442C10.8819 2.84338 10.817 2.84201 10.7537 2.84022C10.7811 2.78364 10.8092 2.72596 10.8383 2.66774ZM6.60711 1.74297C6.70516 1.5827 6.85965 1.47037 7.0423 1.42643C7.09737 1.41324 7.15285 1.40665 7.20819 1.40665C7.33605 1.40665 7.4617 1.44181 7.57308 1.50992C7.58338 1.51665 7.83002 1.68515 8.32097 2.66774C8.35008 2.72596 8.37823 2.78364 8.40556 2.84022C8.34212 2.84201 8.27743 2.84338 8.21193 2.8442C7.1122 2.85794 6.84949 2.71525 6.8396 2.70976C6.67948 2.61171 6.56701 2.45707 6.52306 2.27443C6.47912 2.09192 6.50906 1.90309 6.60711 1.74297ZM5.20292 4.28959H8.85902V5.34427H5.20292V4.28959ZM8.85902 6.75051V10.0198H6.60903C6.22135 10.0198 5.90605 9.70445 5.90605 9.31677V6.75051H8.85902Z" fill="white"/>
</g>
<defs>
<clipPath id="clip0">
<path d="M0 0H18V18H0V0Z" fill="white"/>
</clipPath>
</defs>
</svg>

<svg fill="#FFFFFF" version="1.1" id="Layer_1" xmlns="http://www.w3.org/2000/svg" xmlns:xlink="http://www.w3.org/1999/xlink" x="0px" y="0px"
	 width="18px" height="18px" viewBox="0 0 18 18" enable-background="new 0 0 18 18" xml:space="preserve">
<g>
	<defs>
		<rect id="SVGID_1_" width="18" height="18"/>
	</defs>
	<clipPath id="SVGID_2_">
		<use xlink:href="#SVGID_1_"  overflow="visible"/>
	</clipPath>
	<g clip-path="url(#SVGID_2_)">
		<path d="M17.296,14.484c0.388,0,0.703-0.314,0.703-0.703v-0.734c0-1.669-1.358-3.027-3.027-3.027h-0.433
			c0.078-0.22,0.121-0.456,0.121-0.703V6.75c0.388,0,0.703-0.315,0.703-0.703V3.586c0-0.388-0.315-0.703-0.703-0.703h-0.746
			c0.233-0.595,0.196-1.289-0.162-1.875c-0.295-0.48-0.758-0.818-1.307-0.95c-0.547-0.131-1.113-0.042-1.594,0.252
			c-0.252,0.154-0.656,0.5-1.268,1.722C9.582,2.036,9.581,2.038,9.58,2.041C9.578,2.038,9.577,2.036,9.576,2.033
			C8.964,0.811,8.56,0.465,8.308,0.311C7.828,0.017,7.261-0.072,6.713,0.06C6.166,0.191,5.702,0.528,5.408,1.009
			c-0.359,0.586-0.396,1.28-0.163,1.875H4.5c-0.389,0-0.703,0.315-0.703,0.703v2.461c0,0.388,0.314,0.703,0.703,0.703v2.566
			c0,0.129,0.012,0.256,0.035,0.379L3.577,8.821c-0.401-0.389-0.929-0.6-1.487-0.594c-0.563,0.005-1.091,0.23-1.485,0.632
			S-0.005,9.793,0,10.356s0.229,1.091,0.632,1.485c0.005,0.005,0.01,0.01,0.015,0.014l3.581,3.315
			c0.933,0.902,2.016,1.606,3.219,2.094C8.653,17.752,9.924,18,11.225,18h6.071c0.388,0,0.703-0.314,0.703-0.703
			s-0.315-0.703-0.703-0.703h-6.071c-2.261,0-4.401-0.866-6.025-2.438c-0.003-0.003-0.007-0.007-0.011-0.011l-3.578-3.313
			c-0.13-0.131-0.203-0.305-0.205-0.489c-0.002-0.188,0.07-0.364,0.201-0.499C1.739,9.71,1.915,9.635,2.103,9.633h0.007
			c0.186,0,0.36,0.072,0.492,0.201C2.608,9.84,2.614,9.846,2.62,9.852l4.058,3.709c0.386,0.416,0.937,0.678,1.548,0.678h3.516
			c0.388,0,0.703-0.314,0.703-0.703s-0.315-0.703-0.703-0.703H8.226c-0.145,0-0.28-0.044-0.392-0.119
			c-0.004-0.005-0.008-0.01-0.012-0.014l-0.143-0.13c-0.097-0.12-0.156-0.273-0.156-0.44c0-0.388,0.315-0.703,0.703-0.703h6.746
			c0.894,0,1.621,0.728,1.621,1.621v0.734C16.593,14.17,16.908,14.484,17.296,14.484z M13.254,9.317
			c0,0.388-0.316,0.703-0.703,0.703h-2.285V6.75h2.988V9.317z M13.957,5.344h-3.691V4.29h3.691V5.344z M10.838,2.668
			c0.491-0.983,0.738-1.151,0.748-1.157c0.16-0.098,0.349-0.128,0.531-0.084c0.182,0.044,0.337,0.156,0.436,0.317
			c0.098,0.16,0.127,0.349,0.084,0.531c-0.045,0.183-0.156,0.337-0.316,0.435c-0.011,0.006-0.273,0.148-1.373,0.135
			c-0.065-0.001-0.131-0.002-0.193-0.004C10.781,2.784,10.809,2.726,10.838,2.668z M6.607,1.743C6.705,1.583,6.86,1.47,7.042,1.426
			c0.055-0.013,0.11-0.02,0.166-0.02c0.128,0,0.254,0.035,0.365,0.103c0.01,0.007,0.257,0.175,0.748,1.158
			C8.35,2.726,8.378,2.784,8.406,2.84C8.342,2.842,8.277,2.843,8.212,2.844C7.112,2.858,6.85,2.715,6.84,2.71
			C6.68,2.612,6.567,2.457,6.523,2.274S6.509,1.903,6.607,1.743z M5.203,4.29h3.656v1.055H5.203V4.29z M8.859,6.75v3.269h-2.25
			c-0.388,0-0.703-0.314-0.703-0.703V6.75H8.859z"/>
	</g>
</g>
</svg>
